X:1
T:Title
%%score { ( 1 3 ) | 2 }
L:1/8
M:4/4
K:Db
V:1 treble nm="Grand Piano"
V:3 treble 
V:2 bass 
V:1
 z4 z2[Q:1/4=100] [DF][EG] | [FA][FA][FA][FA] [FB][FA]FA | AEEE E2 [CE][DF] | %3
 [CEG][CEG][CEG][CEG] [CEG][EGc][EGB][EGc] |[M:3/4] [DFB]F FF F2 |[M:1/4] Bc | %6
[M:4/4] [FAd][FAd]Bc [FAd][FAd][Fc][Fd] | [Gc][GB][EG][GB] [FA]2 [GB][Gc] | %8
[M:17/16] [Fd][FA][Gc][GB][FB][FA]3/2Bd |[M:15/8] cABc [Fd]2- [Fd] z2 z6 |[M:1/4] [DF][EG] | %11
[M:4/4] [FA][FA][FA][FB] [FA][Fd]FG |[M:3/4] A6 |[M:1/4] EF |[M:4/4] GGGG cc[GB][Gc] | %15
[M:3/4] [Fd][Fd] [Ec][DB] [CA]2 |[M:1/4] [DF][EG] |[M:4/4] [FA][FA][FA][FB] [FA][Fd]FG | %18
[M:3/4] A6 |[M:1/4] EF |[M:4/4] GGGG cc[GB][Gc] |[M:3/4] [Fd][Fd] [Ec][DB] [CA]2 |] %22
V:2
 z4 z2 [D,A,][D,A,] | [D,D][D,D][D,D][D,D] [D,D][D,D][D,A,D][F,A,D] | %2
 [E,A,C][A,C][A,C][A,C] [A,C]2 [A,,A,][A,,A,] | A,,A,,A,,A,, A,,A,A,A, | %4
[M:3/4] D,[D,A,D] [D,A,D][D,A,D] [D,A,D]2 |[M:1/4] z2 | %6
[M:4/4] [D,A,D][D,A,D] z2 [D,A,D][D,A,D][D,A,][D,A,] | [E,A,][E,C][A,C][A,C] [D,D]2 [G,D][E,A,] | %8
[M:17/16] [D,A,][D,D][G,D][G,D][D,D][D,D]3/2[K:treble][G,DG][G,B,G] | %9
[M:15/8] [A,G][A,CG][A,DG][A,EG][K:bass] [D,D]2- [D,D] z2 z6 |[M:1/4] [D,A,][D,A,] | %11
[M:4/4] [D,D][D,D][D,D][D,D] [D,D][D,A,][D,A,D][E,A,C] |[M:3/4] [F,A,D][F,A,] [E,A,]A,, [D,D]2 | %13
[M:1/4] [G,A,C][F,A,D] | %14
[M:4/4] [E,A,C][E,A,C][E,A,C][E,A,C][K:treble] [A,G][A,G][K:bass][A,,A,][A,,A,] | %15
[M:3/4] [D,A,][D,A,] [E,=G,][E,G,] [A,,A,]2 |[M:1/4] [D,A,][D,A,] | %17
[M:4/4] [D,D][D,D][D,D][D,D] [D,D][D,A,][D,A,D][E,A,C] |[M:3/4] [F,A,D][F,A,] [E,A,]A,, [D,D]2 | %19
[M:1/4] [G,A,C][F,A,D] | %20
[M:4/4] [E,A,C][E,A,C][E,A,C][E,A,C][K:treble] [A,G][A,G][K:bass][A,,A,][A,,A,] | %21
[M:3/4] [D,A,][D,A,] [E,=G,][E,G,] [A,,A,]2 |] %22
V:3
 x8 | x8 | x8 | x8 |[M:3/4] x6 |[M:1/4] x2 |[M:4/4] x8 | x8 |[M:17/16] x17/2 |[M:15/8] x15 | %10
[M:1/4] x2 |[M:4/4] x8 |[M:3/4] z D C[CG] F2 |[M:1/4] x2 |[M:4/4] x8 |[M:3/4] x6 |[M:1/4] x2 | %17
[M:4/4] x8 |[M:3/4] z D C[CG] F2 |[M:1/4] x2 |[M:4/4] x8 |[M:3/4] x6 |] %22

